storage/app/icons/phosphoricons/thin/warning-thin.svg

<svg xmlns="http://www.w3.org/2000/svg" fill="currentColor" viewBox="0 0 256 256"><path d="M233.34 190.09 145.88 38.22a20.75 20.75 0 0 0-35.76 0L22.66 190.09a19.52 19.52 0 0 0 0 19.71A20.36 20.36 0 0 0 40.54 220h174.92a20.36 20.36 0 0 0 17.86-10.2 19.52 19.52 0 0 0 .02-19.71m-6.94 15.71a12.47 12.47 0 0 1-10.94 6.2H40.54a12.47 12.47 0 0 1-10.94-6.2 11.45 11.45 0 0 1 0-11.72l87.45-151.87a12.76 12.76 0 0 1 21.9 0l87.45 151.87a11.45 11.45 0 0 1 0 11.72M124 144v-40a4 4 0 0 1 8 0v40a4 4 0 0 1-8 0m12 36a8 8 0 1 1-8-8 8 8 0 0 1 8 8"/></svg>

<svg xmlns="http://www.w3.org/2000/svg" viewBox="0 0 256 256" fill="currentColor"><path d="M233.34,190.09,145.88,38.22h0a20.75,20.75,0,0,0-35.76,0L22.66,190.09a19.52,19.52,0,0,0,0,19.71A20.36,20.36,0,0,0,40.54,220H215.46a20.36,20.36,0,0,0,17.86-10.2A19.52,19.52,0,0,0,233.34,190.09ZM226.4,205.8a12.47,12.47,0,0,1-10.94,6.2H40.54a12.47,12.47,0,0,1-10.94-6.2,11.45,11.45,0,0,1,0-11.72L117.05,42.21a12.76,12.76,0,0,1,21.9,0L226.4,194.08A11.45,11.45,0,0,1,226.4,205.8ZM124,144V104a4,4,0,0,1,8,0v40a4,4,0,0,1-8,0Zm12,36a8,8,0,1,1-8-8A8,8,0,0,1,136,180Z"/></svg>
